!!!OTL: Die Schlangenkoechin Dove foste j'er sera
!!!ARE: Suedeuropa, Italia
!!!YOR: 4, S. 212
!!    1894 gedruckt in Forli
!!!SCT: Q2079U
!!!YEM: Copyright 1995, estate of Helmut Schaffrath.
**kern
*ICvox
*Ivox
*M6/8
*k[f#]
*G:
{8d
=1
4g
8b
4a
8dd
=2
8cc
8b}
{8a
8g
8a
8b
=3
4a
8g
8b
8a
8g
=4
[4.a
4a]}
{8b
=5
4cc
8ee
4dd
8cc
=6
4.b
4g}
{8b
=7
8a
8a
8b
4cc
8f#
=8
[4.g
4g]
8r}
==
!!!AGN: Ballade, Mord; Reigen - Tanz, antiphonal
!! Italienische Fassung der Ballade.
!!    Zweite Zeile = Refrain.
!!!ONB: ESAC (Essen Associative Code) Database: BALLADE
!!!AMT: compound duple
!!!AIN: vox
!!!EED: Helmut Schaffrath
!!!EEV: 1.0
*-
